X:10
T:Miss Isaac Forsyth, Elgin
B:William Marshall Volume 2nd Of A Collection Of Scottish Melodies (1845)
C:William Marshall
L:1/8
M:6/8
O:Scotland
R:Jig
Z:Clark Bernst + Richard Robinson
%%Page:3 - 3
F:http://richardrobinson.tunebook.org.uk/tune/4092
%%TBL:{"version":1,"type":"tune","id":"4092"}
K:F
%%staves {1 2}
V:1
C | \
F2B (A/B/c)!wedge!A | F2f fed | c2d cAF | EG[DG] [CEG]2 A | \
F2B (A/B/c)!wedge!A | F2f fed | c2d cAF | CFF F2 & A,2[B,D] [A,C]2 :|
~f/g/ | \
agf bag | agf gfe | fed cBA | BGG G2 f/g/ | \
agf bag | agf gfe | def cdB | AFF F2 f/g/ |
agf bag | agf gfe | def cBA | BGG G2 f/g/ | \
F2B (A/B/c)!wedge!A | F2f fed | c2f efg | aff f2 |]
V:2 middle=d clef=bass
z | \
a2d' c'2c' & F,3 F,3 | a2d' d'c'b', & F,3 F,3 | \
a2b', a2a & F,3 F,3 | c'2=b _b3 & C,6 | \
[ac']2d' c'2c' & F,3 F,2F, | a2d' d'c'b & F,3 F,3 | \
a2b a2a & F,3 F,2F, | [Ff]2 [Ff] [Ff]2 :| \
z | \
fac' egc' | fac' fac' | fbd' fac' | cgc' cgc' | \
fac' egc' | fac' fbd' | fbd' egc' | z2[bd'] [ac']2z & F,3 F,3 | \
fac' egc' | fac' fac' | fbd' fac' | cgc' ebc' | \
a2d' c'2c' & F,3 F,2F, | a2d' d'c'b & F,3 F,2F, | \
a2a fab & F,2F, C,3 | a2[bd'] [ac']2 & F,3 - F,2 |]

